!!!COM: Feliciani, Andrea
!!!CDT:
!!!PTL: quinto libro delle muse a cinque voci
!!!PPP: Venice
!!!PPR: Angelo Gardano
!!!PDT: 1575
!!!PUB-format: anthology
!!!RISM: 1575-12
!!!rime: 611
!!!OTL: La bella pargoletta
!!!AGN: Madrigal
!!!SCT: Trm0611c
!!!SCA: Trm0611c
!!!original-voices: 5
!!!extant-voices: 5
!!!complete: Y
!!!final: G
**kern	**text	**kern	**text	**kern	**text	**kern	**text	**kern	**text
*part5	*part5	*part4	*part4	*part3	*part3	*part2	*part2	*part1	*part1
*staff5	*staff5	*staff4	*staff4	*staff3	*staff3	*staff2	*staff2	*staff1	*staff1
*I"Basso	*	*I"Tenore	*	*I"Alto	*	*I"Quinto	*	*I"Canto	*
*I'B	*	*I'T	*	*I'A	*	*I'V	*	*I'C	*
*oclefF3	*	*oclefC3	*	*oclefC2	*	*oclefG2	*	*oclefG2	*
*clefF4	*	*clefGv2	*	*clefG2	*	*clefG2	*	*clefG2	*
*k[b-]	*	*k[b-]	*	*k[b-]	*	*k[b-]	*	*k[b-]	*
*omet(C)	*	*omet(C)	*	*omet(C)	*	*omet(C)	*	*omet(C)	*
*M2/1	*	*M2/1	*	*M2/1	*	*M2/1	*	*M2/1	*
=1	=1	=1	=1	=1	=1	=1	=1	=1	=1
0r	.	0r	.	0r	.	2b-y	La	2dd	La
.	.	.	.	.	.	2.b-y	bel-	2.dd	bel-
.	.	.	.	.	.	4f	-la	4ff	-la
.	.	.	.	.	.	4g	par-	4ee-X	par-
.	.	.	.	.	.	4b-y	-go-	4dd	-go-
=2	=2	=2	=2	=2	=2	=2	=2	=2	=2
0r	.	0r	.	2r	.	2a	-let-	2cc	-let-
.	.	.	.	4r	.	4b-y	-ta,	4b-y	-ta,
.	.	.	.	4b-y	La	4dd	<La	4g	<La
.	.	.	.	2.b-y	bel-	2.dd	bel-	2.g	bel-
.	.	.	.	4f	-la	4ff	-la	4a	-la
=3	=3	=3	=3	=3	=3	=3	=3	=3	=3
0r	.	0r	.	4g	par-	4ee-X	par-	4b-y	par-
.	.	.	.	4b-y	-go-	4dd	-go-	4b-y	-go-
.	.	.	.	2f	-let-	2cc	-let-	2a	-let-
.	.	.	.	2B-y	-ta,	2dd	-ta,>	2b-y	-ta,>
.	.	.	.	2B-y	Ch'an-	2dd	Ch'an-	2b-y	Ch'an-
=4	=4	=4	=4	=4	=4	=4	=4	=4	=4
0r	.	0r	.	2.f	-chor	2.cc	-chor	2.a	-chor
.	.	.	.	4g	non	4b-y	non	4g	non
.	.	.	.	4d	sen-	4a	sen-	4f#X	sen-
.	.	.	.	4e-X	-t'A-	4g	-t'A-	4g	-t'A-
.	.	.	.	2d	-mo-	2a	-mo-	2f#X	-mo-
=5	=5	=5	=5	=5	=5	=5	=5	=5	=5
2r	.	2r	.	1d	-re,	2a	-re,	2f#i	-re,
2.G	Né	2.d	Né	.	.	4r	.	2.bnX	Né
.	.	.	.	.	.	2g	Né	.	.
.	.	.	.	4g	Né	.	.	.	.
4G	pur	4d	pur	4g	pur	4dd	pur	4bnX	pur
2C	no-	2c	no-	2g	no-	2ee-X	no-	2cc	no-
=6	=6	=6	=6	=6	=6	=6	=6	=6	=6
4F	-t'ha	4c	-t'ha	4f	-t'ha	4cc	-t'ha	4a	-t'ha
4C	per	4c	per	4e	per	4cc	per	4g	per
2.F	fa-	2.c	fa-	2.f	fa-	2.cc	fa-	2.a	fa-
4BB-y	-m'il	4B-y	-m'il	4f	-m'il	4dd	-m'il	4b-i	-m'il
4E-i	suo	4B-y	suo	4g	suo	4ee-i	suo	4b-y	suo
4BB-y	va-	4B-y	va-	4f	va-	4dd	va-	4b-y	va-
=7	=7	=7	=7	=7	=7	=7	=7	=7	=7
2F	-lo-	2c	-lo-	2f	-lo-	2cc	-lo-	2a	-lo-
2BB-y	-re	2B-y	-re,	2f	-re,	2dd	-re,	2b-y	-re,
1r	.	4r	.	4r	.	4r	.	4r	.
.	.	4d	Col	4f#X	Col	2dd	Col	4a	Col
.	.	4g	bel	4g	bel	.	.	4bnX	bel
.	.	[4f	guar-	[4a	gar-	4ff	bel	[4cc	guar-
=8	=8	=8	=8	=8	=8	=8	=8	=8	=8
0r	.	8f]	.	8a]	.	2ff	guar-	8cc]	.
.	.	8f	-do	8a	-do	.	.	8cc	-do
.	.	4d	sa-	4bnX	sa-	.	.	4dd	sa-
.	.	8cL	-et-	4cc	-et-	4ee	-do	4.g	-et-
.	.	8d	.	.	.	.	.	.	.
.	.	8e	.	4cc	-ta,	4ee	sa-	.	.
.	.	8fJ	.	.	.	.	.	8a	.
.	.	2g	.	4r	.	4.dd	-et-	8b-yL	.
.	.	.	.	.	.	.	.	8ccJ	.
.	.	.	.	4b-i	sa-	.	.	2dd	.
.	.	.	.	.	.	8eeL	.	.	.
.	.	2d	-ta,	2a	-et-	8ff	.	.	.
.	.	.	.	.	.	8ggJ	.	.	.
.	.	.	.	.	.	4ff	.	4dd	-ta
=9	=9	=9	=9	=9	=9	=9	=9	=9	=9
2d	Col	2r	.	4a	-ta,	4ff	-ta,	4r	.
.	.	.	.	4d	Col	4f	Col	4a	<Col
4c	bel	4r	.	4e	bel	4g	bel	4cc	bel
4.B-y	guar-	2d	<Col	4.f	guar-	4.b-y	guar-	4.dd	guar-
8B-y	-do	.	.	8f	-do	8b-y	-do	8dd	-do
4G	sa-	4d	bel	4g	sa-	4b-y	sa-	4dd	sa-
8FL	-et-	2a	guar-	4.c	-et-	[2cc	-et-	4.ff	-et-
8G	.	.	.	.	.	.	.	.	.
8A	.	.	.	.	.	.	.	.	.
8B-yJ	.	.	.	8d	.	.	.	16eeL	.
.	.	.	.	.	.	.	.	16ddJ	.
=10	=10	=10	=10	=10	=10	=10	=10	=10	=10
2c	.	4g	-do	8eL	.	2cc]	.	8ccL	.
.	.	.	.	8fJ	.	.	.	8dd	.
.	.	4c	sa-	2g	.	.	.	8ee	.
.	.	.	.	.	.	.	.	8ffJ	.
2G	-ta	2d	-et-	.	.	2b-y	-ta	2gg	.
.	.	.	.	4g	-ta	.	.	.	.
2r	.	2d	-ta>	2r	.	2a	E	2ff#X	-ta,>
2G	E	2d	E	[2g	E	[2b-y	col	2r	.
=11	=11	=11	=11	=11	=11	=11	=11	=11	=11
2.E-X	col	1.e-X	col	2g]	.	4b-]	.	0r	.
.	.	.	.	.	.	4b-y	so-	.	.
.	.	.	.	2.g	col	2b-y	-a-	.	.
4E-i	so-	.	.	.	.	.	.	.	.
2E-i	-a-	.	.	.	.	2b-y	-ve	.	.
.	.	.	.	4g	so-	.	.	.	.
2F	-ve	2B-y	so-	4d	-a-	[2b-y	ri-	.	.
.	.	.	.	4e-i	-ve	.	.	.	.
=12	=12	=12	=12	=12	=12	=12	=12	=12	=12
1F	ri-	4c	-a-	1f	ri-	4b-]	.	1r	.
.	.	4d	-ve	.	.	8aL	.	.	.
.	.	.	.	.	.	8gJ	.	.	.
.	.	2c	ri-	.	.	2a	.	.	.
2BB-y	-so,	4B-y	-so,	4f	-so,	1b-y	-so,	2dd	E
.	.	4B-y	<E	4f	<E	.	.	.	.
2r	.	4e-i	col	4g	col	.	.	4ee-X	col
.	.	4B-y	so-	4f	so-	.	.	4dd	so-
=13	=13	=13	=13	=13	=13	=13	=13	=13	=13
1r	.	4f	-a-	4a	-a-	0r	.	4cc	-a-
.	.	4g	-ve	4b-y	-ve	.	.	4b-y	-ve
.	.	2f	ri-	4.a	ri-	.	.	2cc	ri-
.	.	.	.	16gL	.	.	.	.	.
.	.	.	.	16aJ	.	.	.	.	.
4r	.	4B-y	-so,>	2.b-y	.	.	.	2dd	-so,
2G	Né	2B-y	Né	.	.	.	.	.	.
.	.	.	.	.	.	.	.	2r	.
4A	s'ac-	4c	s'ac-	[4f	-so>	.	.	.	.
=14	=14	=14	=14	=14	=14	=14	=14	=14	=14
4.B-y	-cor-	2d	-cor-	4f]	.	1r	.	4r	.
.	.	.	.	4d	Né	.	.	2g	Né
8B-y	-ge	.	.	.	.	.	.	.	.
4c	che	2c	-ge,	4e	s'ac-	.	.	.	.
4F	l'ar-	.	.	4.f	-cor-	.	.	4a	s'ac-
4B-y	-m'ha	1r	.	.	.	2dd	Né	4.b-y	-cor-
.	.	.	.	8f	-ge	.	.	.	.
4G	nel	.	.	4g	che	.	.	.	.
.	.	.	.	.	.	.	.	8b-y	-ge
4c	bel	.	.	4g	l'ar-	4ee	s'ac-	4cc	che
[4B-y	vi-	.	.	4b-y	-m'ha	[4ff	-cor-	[4dd	l'ar-
=15	=15	=15	=15	=15	=15	=15	=15	=15	=15
4B-]	.	1r	.	4b-y	nel	8ff]	.	4dd]	.
.	.	.	.	.	.	8ff	-ge	.	.
4G	-so,	.	.	4b-y	bel	4gg	che	4dd	-m'ha
2r	.	.	.	2a	vi-	4ee	l'ar-	4cc#X	nel
.	.	.	.	.	.	4ee	-m'ha	4cc#i	bel
2d	<Né	4r	.	2a	-so,	4ff	nel	8ddL	vi-
.	.	.	.	.	.	.	.	16ccnXi	.
.	.	.	.	.	.	.	.	16b-y	.
.	.	4d	<Né	.	.	4f	bel	8a	.
.	.	.	.	.	.	.	.	8b-yJ	.
4c	s'ac-	4e	s'ac-	2r	.	8gL	vi-	4cc	.
.	.	.	.	.	.	8a	.	.	.
[4B-y	-cor-	[4f	-cor-	.	.	8b-y	.	4dd	-so,
.	.	.	.	.	.	8ccJ	.	.	.
=16	=16	=16	=16	=16	=16	=16	=16	=16	=16
8B-]	.	8f]	.	2r	.	4dd	.	4r	.
8B-y	-ge	8f	-ge>	.	.	.	.	.	.
4G	che	4g	che	.	.	4bnX	-so,	4dd	<Né
4c	l'ar-	4g	l'ar-	4r	.	4cc	Né	4ee	s'ac-
4F	-m'ha	4a	-m'ha	4f	che	4cc	s'ac-	4.ff	-cor-
4B-y	nel	4d	nel	4f	l'ar-	4dd	-cor-	.	.
.	.	.	.	.	.	.	.	8ff	-ge
4G	bel	4g	bel	4b-y	-m'ha	8dd	-ge	4gg	che
.	.	.	.	.	.	8dd	che	.	.
[2A	vi-	4.c	vi-	[2a	nel	4cc	l'ar-	4ee	l'ar-
.	.	.	.	.	.	4cc	-m'ha	4ff	-m'ha
.	.	8d	.	.	.	.	.	.	.
=17	=17	=17	=17	=17	=17	=17	=17	=17	=17
1A]	.	4e	.	4a]	.	4cc#X	nel	4ee	nel
.	.	4f	.	4a	bel	4dd	bel	4dd	bel
.	.	2e	.	2a	vi-	2ee	vi-	2cc#X	vi-
2D	-so.>	2d	-so.	2a	-so.	2ff#i	-so.	1dd	-so.>
2D	Che	2d	Che	2a	Che	2f#X	Che	.	.
=18	=18	=18	=18	=18	=18	=18	=18	=18	=18
2G	col-	2BnX	col-	2d	col-	2g	col-	0r	.
4F	-p'ha	4c	-p'ha	4f	-p'ha	4a	-p'ha	.	.
2C	del	2c	del	2e	del	2g	del	.	.
4D	mo-	4A	mo-	4d	mo-	4f#i	mo-	.	.
2AA	-ri-	2A	-ri-	2c#X	-ri-	2e	-ri-	.	.
=19	=19	=19	=19	=19	=19	=19	=19	=19	=19
2AA	-re	2A	-re	2.c#i	-re	2.e	-re	2r	.
2A	De	2r	.	.	.	.	.	2a	De
.	.	.	.	4c#i	De	4f#X	De	.	.
2G	la	4r	.	4d	la	2g	la	2bnX	la
.	.	4G	De	4d	tra-	.	.	.	.
4F	tra-	4c	la	[2f	-fit-	4a	tra-	4cc	tra-
[4B-y	-fit-	4B-X	tra-	.	.	[4b-y	-fit-	[4dd	-fit-
=20	=20	=20	=20	=20	=20	=20	=20	=20	=20
4B-]	.	4d	-fit-	4f]	.	4b-]	.	4dd]	.
4d	-ta	4d	-ta	4f	-ta	4a	-ta	4dd	-ta
2A	gen-	2c#X	gen-	2e	gen-	2a	gen-	2ee	gen-
4D	-te,	4d	-te,	4f	-te,	2a	-te,	2dd	-te,
4d	S'ei	4f	S'ei	2a	S'ei	.	.	.	.
4c	non	4e	non	.	.	2r	.	2r	.
[4B-y	sa	[4d	sa	4g	non	.	.	.	.
=21	=21	=21	=21	=21	=21	=21	=21	=21	=21
8B-]	.	8d]	.	4.f	sa	1r	.	2r	.
8B-y	di	8d	di	.	.	.	.	.	.
4A	fe-	4cnXi	fe-	.	.	.	.	.	.
.	.	.	.	8f	di	.	.	.	.
2.G	-ri-	2.B-y	-ri-	4e-X	fe-	.	.	4r	.
.	.	.	.	2d	-ri-	.	.	4g	S'ei
.	.	.	.	.	.	4r	.	4g	non
4D	-re,	4A	-re,	4d	-re,	4dd	S'ei	4.f	sa
4F	di	4a	<S'ei	2r	.	4cc	non	.	.
.	.	.	.	.	.	.	.	8f	di
4G	fe-	4g	non	.	.	[4b-y	sa	4d	fe-
=22	=22	=22	=22	=22	=22	=22	=22	=22	=22
2D	-ri-	4.f	sa	4d	<S'ei	8b-]	.	4dd	-ri-
.	.	.	.	.	.	8b-y	di	.	.
.	.	.	.	4d	non	4a	fe-	4dd	-re,
.	.	8f	di	.	.	.	.	.	.
2G	-re,	4d	fe-	4.B-y	sa	8gL	-ri-	4r	.
.	.	.	.	.	.	8a	.	.	.
.	.	8dL	-ri-	.	.	8b-y	.	4dd	<S'ei
.	.	8eJ	.	8B-y	di	8gJ	.	.	.
2r	.	8fL	.	4A	fe-	4a	.	4cc	non
.	.	16e	.	.	.	.	.	.	.
.	.	16fJ	.	.	.	.	.	.	.
.	.	4g	.	8GL	-ri-	4d	-re,	4.b-y	da
.	.	.	.	8A	.	.	.	.	.
4G	S'ei	2d	-re,>	8B-y	.	2r	.	.	.
.	.	.	.	8GJ	.	.	.	8b-y	di
4F	non	.	.	4A	.	.	.	4a	fe-
=23	=23	=23	=23	=23	=23	=23	=23	=23	=23
4.E-X	sa	1r	.	4B-y	-re,>	4r	.	8gL	-ri-
.	.	.	.	.	.	.	.	8a	.
.	.	.	.	2B-y	S'ei	4g	S'ei	8b-y	.
8E-i	di	.	.	.	.	.	.	8ccJ	.
4D	fe-	.	.	.	.	4f	non	4dd	.
2C	-ri-	.	.	4c	non	4.e-X	sa	4g	-re,>
.	.	2r	.	4G	sa	.	.	4cc	non
.	.	.	.	.	.	8e-i	di	.	.
4BB-y	-re,	.	.	2B-y	di	4d	fe-	4.f	sa
4B-y	<S'ei	4d	S'ei	.	.	2f	-ri-	.	.
.	.	.	.	.	.	.	.	8g	di
4A	non	4c	non	4c	fe-	.	.	4a	fe-
=24	=24	=24	=24	=24	=24	=24	=24	=24	=24
4.G	sa	4.B-y	sa	2.d	-ri-	2g	-re,	4b-y	-ri-
.	.	.	.	.	.	.	.	4g	-re,
8G	di	8B-y	di	.	.	.	.	.	.
4F	fe-	4A	fe-	.	.	4r	.	4r	.
2E-X	-ri-	2B-y	-ri-	4G	-re,	2b-y	<S'ei	2gg	S'ei
.	.	.	.	2r	.	.	.	.	.
4D	-re?>	4B-y	-re,	.	.	4dd	non	4ff	non
2r	.	4c	non	2g	<S'ei	4.cc	sa	4.ee-X	sa
.	.	4c	sa	.	.	.	.	.	.
.	.	.	.	.	.	8b-y	di	8ee-i	di
=25	=25	=25	=25	=25	=25	=25	=25	=25	=25
0r	.	4d	di	4f	non	4a	fe-	2dd	fe-
.	.	4f	fe-	4a	sa	4.dd	-ri-	.	.
.	.	2e-X	-ri-	4b-y	di	.	.	1g	-ri-
.	.	.	.	.	.	16ccL	.	.	.
.	.	.	.	.	.	16b-yJ	.	.	.
.	.	.	.	4g	fe-	4cc	.	.	.
.	.	1d	-re?	2b-y	-ri-	1dd	-re?>	.	.
.	.	.	.	2a	-re?>	.	.	2f#X	-re?
=26	=26	=26	=26	=26	=26	=26	=26	=26	=26
4r	.	4r	.	0r	.	4r	.	4r	.
2G	O	2b-y	O	.	.	2gg	O	2dd	O
4B-y	bel-	4b-y	bel-	.	.	4ff	bel-	4dd	bel-
2c	-lez-	2g	-lez-	.	.	2ee	-lez-	2cc	-lez-
4G	-z'ho-	4g	-z'ho-	.	.	4dd	-z'ho-	4b-y	-z'ho-
4d	-mi-	4f	-mi-	.	.	4ff	-mi-	4a	-mi-
=27	=27	=27	=27	=27	=27	=27	=27	=27	=27
2c	-ci-	2g	-ci-	4r	.	2ee	-ci-	2cc	-ci-
.	.	.	.	2cc	O	.	.	.	.
2F	-da,	4f	-da,	.	.	2ff	-da,	1a	-da,
.	.	2f	<O	4cc	bel-	.	.	.	.
2r	.	.	.	2cc	-lez-	2r	.	.	.
.	.	4f	bel-	.	.	.	.	.	.
[2B-y	<O	2d	-lez-	4f	-za,	4r	.	4r	.
.	.	.	.	[4f	O	[4b-y	O	[4ff	<O
=28	=28	=28	=28	=28	=28	=28	=28	=28	=28
4B-]	.	4d	-z'ho-	4f]	.	4b-]	.	4ff]	.
4F	bel-	4c	-mi-	4f	bel-	4a	bel-	4ff	bel-
2G	-lez-	4.B-y	-ci-	2b-y	-lez-	2g	-lez-	2dd	-lez-
.	.	8c	.	.	.	.	.	.	.
4D	-z'ho-	4d	.	4a	-z'ho-	4f	-z'ho-	4dd	-z'ho-
4F	-mi-	4A	-da> et	4a	-mi-	4f	-mi-	4cc	-mi-
4BB-y	-ci-	[2B-y	in-	4d	-ci-	4f	-ci-	4b-y	-ci-
4BB-y	-da> et	.	.	4f	-da et	4b-y	-da> et	4dd	-da> et
=29	=29	=29	=29	=29	=29	=29	=29	=29	=29
4E-i	in-	4B-]	.	4g	in-	4b-y	in-	4ee-X	in-
4BB-y	-no-	4B-y	-no-	4f	-no-	4b-y	-no-	4dd	-no-
2F	-cen-	2c	-cen-	2f	-cen-	2a	-cen-	2cc	-cen-
2BB-y	-te,	2B-y	-te,	2f	-te,	2b-y	-te,	2dd	-te,
2B-y	Tem-	4r	.	2f	Tem-	2b-y	Tem-	2dd	Tem-
.	.	4B-y	Tem-	.	.	.	.	.	.
=30	=30	=30	=30	=30	=30	=30	=30	=30	=30
2F	-p'è	2c	-p'è	2f	-p'è	2a	-p'è	2cc	-p'è
4G	ch'a-	4r	.	4d	ch'a-	4g	ch'a-	4bnX	ch'a-
2C	-mor	4c	ch'a-	2e	-mor	2g	-mor	2cc	-mor
.	.	4c	-mor	.	.	.	.	.	.
4F	ti	4c	ti	4f	ti	4a	ti	4cc	ti
2BB-y	mo-	2B-y	mo-	2f	mo-	2b-y	mo-	2dd	mo-
=31	=31	=31	=31	=31	=31	=31	=31	=31	=31
2F	-stri	4c	-stri	2f	-stri	2a	-stri	2cc	-stri
.	.	4c	O-	.	.	.	.	.	.
2B-y	O-	2d	-mai	2f	O-	4r	.	4r	.
.	.	.	.	.	.	4f	O-	4b-X	O-
4B-y	-mai	2r	.	4b-y	-mai	4.f	-mai	4dd	-mai
4d	nel-	.	.	4a	nel-	.	.	4ff	nel-
.	.	.	.	.	.	8f	nel-	.	.
4c	-le	4r	.	4cc	-le	4g	-le	4ee-X	-le
4B-y	tue	4d	nel-	4f	tue	4b-y	tue	4dd	tue
=32	=32	=32	=32	=32	=32	=32	=32	=32	=32
1.F	pia-	4f	-le	2f	pia-	4a	pia-	4cc	pia-
.	.	4d	tue	.	.	4b-y	-gh'i	4b-y	-gh'i
.	.	4c	pia-	1f	-ghe,	4cc	do-	4a	do-
.	.	4B-y	-gh'i	.	.	4dd	-lor	4b-y	-lor
.	.	4c	do-	.	.	2cc	no-	4b-y	no-
.	.	4c	-lor	.	.	.	.	4a	.
2B-y	-gh'i	2d	no-	4r	.	4f	-stri,	4b-y	-stri,
.	.	.	.	4d	o-	[4f	nel-	4dd	nel-
=33	=33	=33	=33	=33	=33	=33	=33	=33	=33
2.B-y	do-	4d	-stri,	4b-y	-mai	4f]	.	4dd	-le
.	.	4d	nel-	4a	nel-	2f	-le	2dd	tue
.	.	4d	-le	4g	-le	.	.	.	.
4c	-lor	4e	tue	4g	tue	4e	tue	2cc	pia-
[1d	no-	2.f	pia-	4f	pia-	4a	pia-	.	.
.	.	.	.	4g	-gh'i	4g	-gh'i	4b-y	-gh'i
.	.	.	.	4a	do-	4f	do-	4a	do-
.	.	4g	-gh'i	4b-y	-lor	4d	-lor	4g	-lor
=34	=34	=34	=34	=34	=34	=34	=34	=34	=34
2d]	.	4a	do-	2a	no-	2dd	no-	2f#X	no-
.	.	4d	-lor	.	.	.	.	.	.
2G	-stri,	2d	no-	2g	-stri,	2bnX	-stri,	2g	-stri,
2B-y	nel-	2d	-stri	2f	nel-	2r	.	2r	.
[2E-X	-le	2e-X	O-	[2g	-le	4r	.	2b-y	<nel-
.	.	.	.	.	.	4ee-X	nel-	.	.
=35	=35	=35	=35	=35	=35	=35	=35	=35	=35
4E-]	.	4.B-y	-mai	4g]	.	2ee-i	-le	1b-y	-le
4E-i	tue	.	.	4g	tue	.	.	.	.
.	.	8c	nel-	.	.	.	.	.	.
2B-y	pia-	4d	-le	1f	pia-	2dd	tue	.	.
.	.	4d	tue	.	.	.	.	.	.
2F	-gh'i	4f	pia-	.	.	2cc	pia-	2a	tue
.	.	4F	-gh'i	.	.	.	.	.	.
[2G	do-	[2B-y	do-	2d	-gh'i	[2b-X	-gh'i	[2g	pia-
=36	=36	=36	=36	=36	=36	=36	=36	=36	=36
2G]	.	4B-]	.	2d	do-	4b-]	.	4g]	.
.	.	8AL	.	.	.	4b-y	do-	2g	-gh'i
.	.	8GJ	.	.	.	.	.	.	.
2D	-lor	2.A	.	2d	-lor	2.a	-lor	.	.
.	.	.	.	.	.	.	.	2f#X	do-
1D	no-	.	.	1d	no-	.	.	.	.
.	.	4B-y	-lor	.	.	4.g	no-	4g	-lor
.	.	2A	no-	.	.	.	.	2a	no-
.	.	.	.	.	.	16f#iL	.	.	.
.	.	.	.	.	.	16enXiJ	.	.	.
.	.	.	.	.	.	4f#i	.	.	.
=37	=37	=37	=37	=37	=37	=37	=37	=37	=37
0Gl	-stri.	0Gl	-stri.	0dl	-stri.	0gl	-stri.	0bnXl	-stri.
==	==	==	==	==	==	==	==	==	==
*-	*-	*-	*-	*-	*-	*-	*-	*-	*-
!!!system-decoration: [*]
!!!YEM:	Feliciani, Andrea "La bella pargoletta" 1575 (Trm 0611c; 25 Aug 2018) Tasso in Music Project (http://www.tassomusic.org) Copyright 2018 Emiliano Ricciardi
!!!RDF**kern: i = editorial accidental
!!!RDF**kern: l = terminal long
!!!ENC: Emiliano Ricciardi
!!!END: 2018
!!!EED: Donnelly, Daniel
!!!EEV: 2018/10/28
!!!YEC: Copyright 2018 Emiliano Ricciardi, All Rights Reserved
!!!ONB: Translated from MusicXML on 2018/10/28 and edited by Craig Stuart Sapp
!!@@BEGIN:	VERSEDATA
!!@SOLERTI:	611
!!@CATALOGNUM:	Trm0611
!!@LAST_MODIFIED: 2020/07/12
!!@TITLE:		La bella pargoletta
!!@GENRE:		madrigale
!!@MANUSRC:	A<sub>3</sub>, Amz, Ar, C, E<sub>1</sub>, H<sub>3</sub>, I<sub>5</sub>, M<sub>4</sub>, N<sub>12</sub>, N<sub>13</sub>, N<sub>15</sub>, P<sub>4</sub>, Ts<sub>1</sub>, V<sub>2</sub>, V<sub>8</sub>, V<sub>13/E1</sub>, V<sub>13/TS1</sub>, W
!!@PRINTSRC:	7, 8, 9, 11, 12, 13, 15, 20, 24, 29, 33, 67, 93, 141, 145, 166, 169
!!@@BEGIN:	VERSES
!!@ABOUTIT:	In lode de la signora Laura Correggiara, giovinetta bellissima e dama di Madama Leonora d'Este.
!!@ABOUTEN:	In praise of lady Laura Correggiara, most beautful young girl and lady in waiting of Madama Leonora d'Este.
!!@EDITOR:	Solerti, Angelo
!!@EDITION_TITLE: Le Rime di Torquato Tasso
!!@EDITION_LOC:	Bologna
!!@EDITION_PUB:	Romagnoli-Dall’Acqua
!!@EDITION_DATE:  1898-1902
!!@EDITION_VOL:	3
!!@EDITION_PAGE:  151
!!@TRANSLATOR:	Emiliano Ricciardi and Amyrose McCue Gill
!!@VERSE:
!!	La bella pargoletta,
!!	Ch'ancor non sente amore,
!!	Né pur noto ha per fama il suo valore,
!!	Co' begli occhi saetta
!!	E col soave riso,
!!	Né s'accorge che l'arme ha nel bel viso.
!!	Qual colpa ha nel morire
!!	De la trafitta gente,
!!	Se non sa di ferire?
!!	O bellezza omicida ed innocente,
!!	Tempo è ch'Amor ti mostri
!!	Omai ne le tue piaghe i dolor nostri.
!!@TVERSE:
!!	The beautiful young girl
!!	Who does not yet feel Love
!!	Nor even has made note by rumor of its worth,
!!	With her beautiful eyes lets fly darts
!!	And with her pleasing smile,
!!	Nor realizes that weapons she has in her beautiful face.
!!	What fault does she have in the death
!!	Of the transfixed people
!!	If she does not know she can wound?
!!	O beauty, deadly and innocent,
!!	It is time that Love show you
!!	Now our pains in your wounds.
!!@@END:		VERSES
!!@OTHER_CRIT_ED:   Torquato Tasso, <i>Rime d’amore (secondo il codice
!!		Chigiano L VIII 302)</i>, eds. Franco Gavazzeni and
!!		Vercingetorige Martignone, vol. 4 of <i>Edizione
!!		Nazionale delle opere di Torquato Tasso</i>
!!		(Alessandria: Edizioni Dell’Orso, 2004), 192-93.
!!@ATTRIBUTION_ABOUT:	Secure
!!		<br>
!!		Among other authoritative sources (see Literary
!!		Sources), this poem appears in the autograph Chigiano
!!		L.VIII.302 (Biblioteca Vaticana, Rome), compiled
!!		around 1584&ndash;85.
!!@DATING:	In or before 1575
!!		<br>
!!		The earliest datable appearances of this poem are in three musical settings published in 1575 (see Musical Settings)
!!@DEDICATEE:	Correggiara, Laura
!!@COMMENTARY:
!!@@END:		VERSEDATA
!!@@BEGIN:	SETTING
!!@CATALOGNUM:	Trm0611c
!!@RIMETITLE:	La bella pargoletta
!!@SOLERTI:	611
!!@COMPOSER:	Feliciani, Andrea
!!@PRINCEPSFORMAT: anthology
!!@PRINCEPSTITLE:	quinto libro delle muse a cinque voci
!!@PRINCEPSLOC:	Venetia
!!@NORMLOC:	Venice
!!@NORMPUB:	Angelo Gardano
!!@NORMPUBSHORT:	Gardano
!!@PRINCEPSPUB:	Gardano
!!@PRINCEPSYEAR:	1575
!!@PRINCEPSRISM:	1575-12
!!@REPRINTS:	F203
!!@OVOICES:	5
!!@EXTANTVOICES:	5
!!@PARTBOOKS:	
!!@EXTPARTBOOKS:	
!!@OCLEFS:	G2,G2,C2,C3,F3
!!@OMENSURATION:	C
!!@OKEYSIG:	b-
!!@FINAL:	G
!!@TIMPEDITOR:	Donnelly, Daniel
!!@NOTE:		
!!@@END:		SETTING
